!! 00000] TT[WS
!!!OTL: Fu pantao
!!!ARE: Asia, China, Shanxi Qinyuan
!! Ethnic Group: Han
!! WII, 197 (2)
!!!SCT: J0698
!!!YEM: Copyright 1995, estate of Helmut Schaffrath.
**kern
*ICvox
*Ivox
*M2/4
*k[b-e-]
*B-:
{8bb-
16bb-
16gg
4ff
=1
16gg
16bb-
16gg
16ff
4dd
=2
8bb-
16bb-
16gg
16ddd
16fff
16ddd
16ccc
=3
16bb-
16ccc
16bb-
16gg
8ff
8r}
=4
{8bb-
16ff
16gg
8bb-
8bb-
=5
16ddd
16ccc
16ddd
16ccc
8bb-
16gg
16ff
=6
8ff
16ff
16gg
8.dd
16cc
=7
8b-
4.r}
=8
{4bb-
8gg
8ff
=9
8ff
8ddd
8ccc
8ddd
=10
8.bb-
16gg
4ff}
=11
{8.ff
16gg
4bb-
=12
8.dd
16cc
4aa
=13
8.ff
16gg
4aa
=14
16ff
16gg
4dd
8cc
=15
8b-
4.r}
==
!!!AGN: Xiaodiao, Shidiao. XÅshi
!!!ONB: ESAC (Essen Associative Code) Database: CHINA
!!!AMT: simple duple
!!!AIN: vox
!!!EED: Helmut Schaffrath
!!!EEV: 1.0
*-
